X:26
T:TWO-PENNY POSTMAN'S -- JIG.
R:slipjig
B:Coles pg. 64.6
Z:John B. Walsh, <walsh:mat:h.ubc.ca> 5/19/02
M:9/8
L:1/8
K:A
ud|:c2A AcA ecA|cec aec fga|c2A AcA ecA|BcB fdB Bcd:|
|:cec aec aec|cec aec fga|cec aec aec|BcB fdB Bcd:|
